X:3
T:3 Del Caros Hornpipe
C:Welch MS
I:abc2nwc
M:4/4
L:1/8
K:G
G3/2B/2 d3/2g/2 f3/2e/2 d3/2e/2|d3/2c/2 B3/2A/2 B3/2c/2 d2|G3/2B/2 d3/2g/2 f3/2e/2 d3/2c/2|B3/2A/2 G3/2F/2 G2G2:|
G3/2B/2 d3/2g/2 e/2f/2g e/2f/2g|D3/2F/2 A3/2c/2 B/2c/2d B/2c/2d|G3/2B/2 d3/2g/2 e/2f/2g e/2f/2g|B3/2A/2 G3/2F/2 G2G2:|

